X: 1
T: the Shores of Coeur d'Alene
C: Cammy Kaynor (7/97)
R: waltz
Z: 2006 John Chambers <jc:trillian.mit.edu>
S: printed page with harmony
M: 3/4
L: 1/8
K: Dm
%%systemsep 50
V: 1
|:"Dm"a3   d d2 |     ag  f2 a2 | "A7"g3   f  ed  |     ^c6  \
| "A7"a3  ^c c2 |    ^cd  e2 g2 | "Dm"f3   e  d^c |      d6  |
| "Dm"a3   d d2 | "Gm"ba  g2 f2 |  "C"e3   f  ed  |      c6  \
|  "C"G3   A GE |     C2  c2 B2 |  "F"A3   G  FE  |      F6 :|
[| "F"FG  A2 c2 |  "C"EF  G2 c2 | "Dm"DE   F2 A2  | "A7"^CD E2 G2 \
| "Bb"B,C D2 F2 | "F"A,B, C2 F2 | "G"G,=B, D2 GF  |  "C" EF ED CE |
| "Dm"FA  d2 A2 | "A7"EA ^c2 A2 | "Dm"FA  d^c df  | "A7" ea e^c A2 \
| "Gm"b>a gb ag | "Dm"a>g fa gf | "A7"ae  ^ce Ac  | "Dm" d6 |]
V: 2
|: d4    A2  | A4       d2 | e3    d  ^cB  | A6         \
|  e4    A2  | A2 =B2  ^c2 | d^c  de   fg  | ab  ag fe  |
|  f4    d2  | g4       e2 | c4        G2  | E6         \
|  E3  F ED  | C2  D2   E2 | F3    E   FG  | F6        :|
[| c2 A2 F2  | G2  E2   C2 | A2   F2   D2  | E2 ^C2 A,2 \
|  F2 D2 B,2 | CB, A,B, C2 |=B,A, G,A, B,2 | C2  G2 E2  |
|  F2 A2 F2  | E2  G2   E2 | D2   F2   D2  |^C2  E2 A2  \
|  G6        | D6          | A,2 =B,2 ^C2  | D6        |]

%%sep 1 1 500

